src/icons/svg/DimensionFill.svg

<!-- Generated by IcoMoon.io -->
<svg version="1.1" xmlns="http://www.w3.org/2000/svg" width="24" height="24" viewBox="0 0 24 24">
<title>dimension-fill</title>
<path fill="#444" d="M1.245 7.896c-0.687 0-1.245 0.89-1.245 1.992v3.984c0 1.1 0.558 1.992 1.245 1.992h17.43c0.688 0 1.245-0.892 1.245-1.992v-3.984c0-1.102-0.557-1.992-1.245-1.992h-17.43zM16.949 13.872h-13.897c-0.315 0-1.051-0.446-1.051-0.996v-1.992c0-0.55 0.736-0.996 1.051-0.996h13.897c0.314 0 1.051 0.446 1.051 0.996v1.992c0 0.55-0.737 0.996-1.051 0.996zM5.25 17.856c-0.69 0-1.25 0.445-1.25 0.996v1.992c0 0.55 0.56 0.996 1.25 0.996h17.5c0.691 0 1.25-0.446 1.25-0.996v-1.992c0-0.551-0.559-0.996-1.25-0.996h-17.5zM5.25 1.92c-0.69 0-1.25 0.446-1.25 0.996v1.992c0 0.551 0.56 0.996 1.25 0.996h17.5c0.691 0 1.25-0.445 1.25-0.996v-1.992c0-0.55-0.559-0.996-1.25-0.996h-17.5z"></path>
</svg>

<svg width="24" height="24" viewBox="0 0 24 24" fill="none" xmlns="http://www.w3.org/2000/svg">
<path d="M1.245 7.896C0.558 7.896 0 8.786 0 9.888V13.872C0 14.972 0.558 15.864 1.245 15.864H18.675C19.363 15.864 19.92 14.972 19.92 13.872V9.888C19.92 8.786 19.363 7.896 18.675 7.896H1.245V7.896ZM16.949 13.872H3.052C2.737 13.872 2.001 13.426 2.001 12.876V10.884C2.001 10.334 2.737 9.888 3.052 9.888H16.949C17.263 9.888 18 10.334 18 10.884V12.876C18 13.426 17.263 13.872 16.949 13.872V13.872ZM5.25 17.856C4.56 17.856 4 18.301 4 18.852V20.844C4 21.394 4.56 21.84 5.25 21.84H22.75C23.441 21.84 24 21.394 24 20.844V18.852C24 18.301 23.441 17.856 22.75 17.856H5.25ZM5.25 1.92C4.56 1.92 4 2.366 4 2.916V4.908C4 5.459 4.56 5.904 5.25 5.904H22.75C23.441 5.904 24 5.459 24 4.908V2.916C24 2.366 23.441 1.92 22.75 1.92H5.25V1.92Z" fill="#1C2125"/>
</svg>
